X:65
T: ES RITT EINMAL EIN RITTER
N: E1063
O: Europa, Mitteleuropa, Deutschland, Wuerttemberg, Stuttgart
R: Raetsel - Lied
M: 2/4
L: 1/16
K: G
D2 | G3FG2A2 | G4D2
D2 | B3AB2c2 | B4z2
A2 | B3AB2c2 | d4c2
B2 | A3GA2B2 | G4z2
G2 | d4d4 | e4e3
d | c3Bc2e2 | d6
c2 | B4B3d | d4c3
B | A4A3B | G4z2
G2 | d4d4 | e4e3
d | c3Bc2e2 | d6
c2 | B4B3d | d4c3
B | A4A3B | G4z2

@@@ Tune index: 4749
